X:1
T:Rise, my joy - Webbe
T:#
%%score [ 1 { 2 | 3 } 4 ]
L:1/8
Q:1/4=84
M:2/2
K:G
V:1 treble nm="Alto" snm="A"
V:2 treble-8 nm="Tenor I" snm="T"
V:3 treble-8 
V:4 bass nm="Bass" snm="B"
V:1
"^Rise, my joy""^Samuel Webbe \n(1740-1816)""^allegro" D3 G (GF) z2 | F3 A (AG) z2 | G3 A F2 G2 | %3
w: Rise, my joy, *|Rise, my joy, *|Rise, my joy, sweet|
 G2 F2 G4 | D3 D E3 E |[M:2/2] E2 ^C2 D2 F2 | G2 F>F E2 F2 | E2 (FG) F4 | D3 D ^C2 C2 | %9
w: mirth at- tend,|I'm re- solv'd to|be thy friend, sweet|mirth, I'm re- solv'd to|be thy * friend.|Sneak- ing Phoe- bus|
 =C3 C B,2 z2 | G3 F (E^D) E2 | E2 ^D2 E4 | E3 G FG A2- | A2 A2 G2 G2- | G3 B G2 G2 | G2 G2 F2 DD | %16
w: hides his head,|He's with The\- * tis|gone to bed,|Tho' he will not on|* me shine, Still|* there's bright- ness|in the wine, Tho' he|
 GBAG F2 DD | GBAG F4 | z4 z EFA | GDG=F E[Q:1/4=50]!fermata!E z[Q:1/4=84] A | F3 F F3 G | %21
w: will not on my shine, Still there's|bright- ness in the wine.|From Bac- chus|I'll such lu- stre bor- row, My|face shall be a|
 A2 F2 GG z2 :| %22
w: sun to- mor- row.|
V:2
 d3 d c2 z2 | c3 c d2 z2 | e3 e f2 d2 | e2 d2 d4 | B3 B B3 G |[M:2/2][K:treble-8] A2 A2 A2 A2 | %6
w: Rise, my joy,|Rise, my joy,|Rise, my joy, sweet|mirth at- tend,|I'm re- solv'd to|be thy friend, sweet|
 B2 d>d ^c2 d2 | d2 ^c2 d4 | A3 A A2 A2 | A3 A B2 z2 | e3 c B2 B2 | B2 B2 B4 | c3 G (AB) c2 | %13
w: mirth, I'm re- solv'd to|be thy friend.|Sneak- ing Phoe- bus|hides his head,|He's with The- tis|gone to bed,|Tho' he will * not|
 d2 d2 d4 | d3 g e2 c2 | e2 e2 d2 dc | BdcB A2 dc | BdcB A4 | z dBG z cAc | BBcB c!fermata!c z c | %20
w: on me shine,|Still there's bright- ness|in the wine, Tho' he|will not on my shine, Still there's|bright- ness in the wine.|From Bac- chus, From Bac- chus|I'll such lu- stre bor- row, My|
 d3 d d3 g | c2 c2 BG z2 :| %22
w: face shall be a|sun to- mor- row.|
V:3
 B3 B A2 z2 | c3 c B2 z2 | e3 e d2 d2 | c2 A2 B4 | G3 G G3 G |[M:2/2][K:treble-8] E2 E2 F2 z2 | %6
w: Rise, my joy,|Rise, my joy,|Rise, my joy, sweet|mirth at- tend,|I'm re- solv'd to|be thy friend,|
 z2 A>A A2 A2 | B2 A2 A4 | F3 F G2 G2 | A3 A G2 z2 | B3 A (GF) G2 | G2 F2 G4 | Eeed cB A2 | %13
w: I'm re- solv'd to|be thy friend.|Sneak- ing Phoe- bus|hides his head,|He's with The\- * tis|gone to bed,|Tho' he will not on me shine,|
 Fffe dc B2 | B3 d c2 e2 | A3 A A2 d2- | d3 d d2 d2 | d2 D2 D4 | z2 z B ce z2 | %19
w: Tho' he will not on me shine,|Still there's bright- ness|in the wine, Still|* there's bright- ness|in the wine.|From Bac- chus|
 ddcd G!fermata!G z A | A2 d2 d3 d | c2 A2 GG z2 :| %22
w: I'll such lu- stre bor- row, My|face shall be a|sun to- mor- row.|
V:4
 G,3 G, A,2 z2 | A,3 A, B,2 z2 | C3 C D2 B,,2 | C,2 D,2 G,,4 | G,3 G, E,3 E, | %5
w: Rise, my joy,|Rise, my joy,|Rise, my joy, sweet|mirth at- tend,|I'm re- solv'd to|
[M:2/2] ^C,2 A,,2 D,2 z2 | z2 (D,/E,/) (F,/G,/) A,2 D,2 | G,2 A,2 D,4 | D,3 D, E,2 E,2 | %9
w: be thy friend,|I'm * re\- * solv'd to|be thy friend.|Sneak- ing Phoe- bus|
 F,3 F, G,2 z2 | G,,3 A,, B,,2 E,2 | B,2 B,,2 E,4 | C,CCB, A,G, F,2 | D,DDC B,A, G,2 | %14
w: hides his head,|He's with The- tis|gone to bed,|Tho' he will not on me shine,|Tho' he will not on me shine,|
 B,3 B,, C,2 C2 | C,2 A,,2 D,4- | D,8 | D,6 z D, | G,B, z G, A,C z2 | %19
w: Still there's bright- ness|in the wine,||* From|Bac- chus, From Bac- chus|
 G,F,E,D, C,!fermata!C, z A,, | D,3 C C3 B, | A,2 D,2 G,G,, z2 :| %22
w: I'll such lu- stre bor- row, My|face shall be a|sun to- mor- row.|

